X:545
T:Mo Mh\`airi Mhin Mheall Shuileach
R:Slow Strathspey
B:The Athole Collection
M:C|
L:1/8
Q:1/4=140
K:A Minor
c|:Ad B<g|G<G d>G B>AG>B|AdB<g|a>eg>B A2 A<B:|
|:A<aagg>a|b>aa>g g>ee>g|d>eg>a b>ag>b|a<e g>B A2 AB:|
